!!!OTL: Koenig von Mailand Ich sach ein pild in plaber wat
!!!ARE: Europa, Mitteleuropa, Deutschland
!!!YOR: 3, S. 234
!!    1450 Handschrift
!!!SCT: Q1067A
!!!YEM: Copyright 1995, estate of Helmut Schaffrath.
**kern
*ICvox
*Ivox
*M6/4
*k[b-]
*F:
{4c
=1
4f
4f
4g
[2f
8f]
8a
=2
4a
8a
4.g
2.f}
=3
{4d
4d
4e-
2d
[4f
=4
4f]
2g
4g
8f
8e
4d
=5
2.c
2r
8r
{8c
=6
4f
4f
4a
2.cc
=7
4cc
8b-
8a
4g
4f
8cc
8a
4g
=8
2.f
2r}
==
!!!AGN: ???
!! Melodievergleich zu Q0067, anderes Lied. Pause am Ende der 2. Zeile
!!    eingefuegt.
!!!ONB: ESAC (Essen Associative Code) Database: BALLADE
!!!AMT: compound duple
!!!AIN: vox
!!!EED: Helmut Schaffrath
!!!EEV: 1.0
*-
